assets/images/companyCards/large/card-plaid-large.svg

<svg xmlns="http://www.w3.org/2000/svg" xmlns:xlink="http://www.w3.org/1999/xlink" fill="none" viewBox="0 0 235 153"><rect width="234" height="146" x=".5" y=".5" fill="#fff" rx="15.5"/><rect width="234" height="146" x=".5" y=".5" stroke="#E6E1DA" rx="15.5"/><rect width="105" height="105" x="106" y="24" fill="url(#pattern0_296_9955)"/><path fill="#E7ECE9" d="M46.0988 77.7314C47.0531 77.7314 47.8263 78.5047 47.8263 79.459V86.7734C47.8263 87.7278 47.0531 88.502 46.0988 88.502H40.4161C39.4618 88.502 38.6876 87.7278 38.6876 86.7734V79.459C38.6876 78.5047 39.4618 77.7314 40.4161 77.7314H46.0988ZM57.5226 80.6689C58.4767 80.6692 59.2501 81.4423 59.2501 82.3965V86.7734C59.2501 87.7276 58.4767 88.5017 57.5226 88.502H51.839C50.8847 88.5019 50.1115 87.7277 50.1115 86.7734V82.3965C50.1115 81.4422 50.8847 80.669 51.839 80.6689H57.5226ZM34.6749 65C35.6291 65 36.4032 65.7734 36.4034 66.7275V86.7715C36.4034 87.7258 35.6292 88.499 34.6749 88.499H22.4523C21.8885 88.499 21.3596 88.2245 21.0363 87.7627L18.4376 84.0498C18.2343 83.7594 18.1251 83.4131 18.1251 83.0586V70.4404C18.1251 70.0859 18.2343 69.7397 18.4376 69.4492L21.0363 65.7373C21.3596 65.2754 21.8884 65 22.4523 65H34.6749ZM57.5226 65C58.4765 65.0003 59.2499 65.7736 59.2501 66.7275V76.9805C59.2499 77.9344 58.4765 78.7078 57.5226 78.708H51.839C50.8849 78.708 50.1117 77.9345 50.1115 76.9805V66.7275C50.1117 65.7734 50.8848 65 51.839 65H57.5226ZM46.0988 65C47.0529 65 47.8261 65.7734 47.8263 66.7275V74.043C47.8261 74.9971 47.0529 75.7705 46.0988 75.7705H40.4161C39.462 75.7705 38.6878 74.9971 38.6876 74.043V66.7275C38.6878 65.7734 39.462 65 40.4161 65H46.0988Z"/><defs><pattern id="pattern0_296_9955" width="1" height="1" patternContentUnits="objectBoundingBox"><use transform="scale(0.00657895)" xlink:href="#image0_296_9955"/></pattern></defs></svg>

<svg xmlns="http://www.w3.org/2000/svg" xmlns:xlink="http://www.w3.org/1999/xlink" fill="none" viewBox="0 0 235 153"><rect width="234" height="146" x=".5" y=".5" fill="#fff" rx="15.5"/><rect width="234" height="146" x=".5" y=".5" stroke="#e6e1da" rx="15.5"/><path fill="url(#a)" d="M106 24h105v105H106z"/><path fill="#e7ece9" d="M46.099 77.731c.954 0 1.727.774 1.727 1.728v7.314c0 .955-.773 1.729-1.727 1.729h-5.683a1.73 1.73 0 0 1-1.728-1.729V79.46c0-.954.774-1.728 1.728-1.728zm11.424 2.938c.954 0 1.727.773 1.727 1.728v4.376c0 .955-.773 1.729-1.727 1.729h-5.684a1.73 1.73 0 0 1-1.727-1.729v-4.376c0-.955.773-1.728 1.727-1.728zM34.675 65c.954 0 1.728.773 1.728 1.728v20.044c0 .954-.774 1.727-1.728 1.727H22.452a1.73 1.73 0 0 1-1.416-.736l-2.598-3.713a1.73 1.73 0 0 1-.313-.991V70.44c0-.354.11-.7.313-.99l2.598-3.713A1.73 1.73 0 0 1 22.452 65zm22.848 0c.953 0 1.727.774 1.727 1.728V76.98c0 .953-.773 1.727-1.727 1.727h-5.684a1.73 1.73 0 0 1-1.727-1.727V66.728c0-.955.773-1.728 1.727-1.728zm-11.424 0c.954 0 1.727.773 1.727 1.728v7.315c0 .954-.773 1.727-1.727 1.727h-5.683a1.73 1.73 0 0 1-1.728-1.727v-7.315c0-.955.774-1.728 1.728-1.728z"/><defs><pattern id="a" width="1" height="1" patternContentUnits="objectBoundingBox"><use xlink:href="#image0_296_9955" transform="scale(.00658)"/></pattern></defs></svg>
